X: 37531
T: Sloe, The
R: polka
M: 2/4
K: Dmajor
|:d3Ad2e2|f3ed2c2|B2 A2 BcdB|A2F2E2D2|
d3Ad2e2|f3ed2c2|B2A2B2c2|1 d4dABc:|2 d6AA||
|:B2A2F2AA|B2A2F2dd|d2ccc2BB|B2A2A2dd|
d2ccc2ee|e2d2d3e|f2e2B2c2|1 d6AA:|2 d4dABc||

